Icons/Azure Icons - Menu - Azure Firewall Trusted Partners.svg

<svg xmlns="http://www.w3.org/2000/svg" width="18" height="18" viewBox="0 0 18 18">
  <defs>
    <linearGradient id="uuid-80d0ee39-64d9-4ee1-8250-0603d57e9ac0" x1="13.531" y1="16.719" x2="13.531" y2="7.779" gradientUnits="userSpaceOnUse">
      <stop offset="0" stop-color="#b3b2b3"/>
      <stop offset=".376" stop-color="#b5b4b5"/>
      <stop offset=".606" stop-color="#bdbdbd"/>
      <stop offset=".797" stop-color="#cbcbcb"/>
      <stop offset=".965" stop-color="#dfdfde"/>
      <stop offset="1" stop-color="#e5e5e4"/>
    </linearGradient>
    <linearGradient id="uuid-54cc4271-6fe4-40cc-a6c2-1ac11f708cc9" x1="16.648" x2="16.648" y2="7.779" gradientUnits="userSpaceOnUse">
      <stop offset="0" stop-color="#b3b2b3"/>
      <stop offset=".376" stop-color="#b5b4b5"/>
      <stop offset=".606" stop-color="#bdbdbd"/>
      <stop offset=".797" stop-color="#cbcbcb"/>
      <stop offset=".965" stop-color="#dfdfde"/>
      <stop offset="1" stop-color="#e5e5e4"/>
    </linearGradient>
    <linearGradient id="uuid-c0a1f4c9-1bf9-489f-84f2-00ae78a74dbc" x1="12.089" x2="12.089" y2="7.779" gradientUnits="userSpaceOnUse">
      <stop offset="0" stop-color="#b3b2b3"/>
      <stop offset=".376" stop-color="#b5b4b5"/>
      <stop offset=".606" stop-color="#bdbdbd"/>
      <stop offset=".797" stop-color="#cbcbcb"/>
      <stop offset=".965" stop-color="#dfdfde"/>
      <stop offset="1" stop-color="#e5e5e4"/>
    </linearGradient>
    <linearGradient id="uuid-aafafa4e-b08d-4853-a504-abe0e0b9d4e9" x1="15.786" y1="16.719" x2="15.786" y2="7.779" gradientUnits="userSpaceOnUse">
      <stop offset="0" stop-color="#b3b2b3"/>
      <stop offset=".376" stop-color="#b5b4b5"/>
      <stop offset=".606" stop-color="#bdbdbd"/>
      <stop offset=".797" stop-color="#cbcbcb"/>
      <stop offset=".965" stop-color="#dfdfde"/>
      <stop offset="1" stop-color="#e5e5e4"/>
    </linearGradient>
    <linearGradient id="uuid-1a76dd1c-00c3-44cd-afa6-78c113930345" x1="10.268" x2="10.268" y2="7.779" gradientUnits="userSpaceOnUse">
      <stop offset="0" stop-color="#b3b2b3"/>
      <stop offset=".376" stop-color="#b5b4b5"/>
      <stop offset=".606" stop-color="#bdbdbd"/>
      <stop offset=".797" stop-color="#cbcbcb"/>
      <stop offset=".965" stop-color="#dfdfde"/>
      <stop offset="1" stop-color="#e5e5e4"/>
    </linearGradient>
    <linearGradient id="uuid-a70c96be-5675-41e1-9f92-bdcbd20bfdeb" x1="13.268" x2="13.268" y2="7.779" gradientUnits="userSpaceOnUse">
      <stop offset="0" stop-color="#b3b2b3"/>
      <stop offset=".376" stop-color="#b5b4b5"/>
      <stop offset=".606" stop-color="#bdbdbd"/>
      <stop offset=".797" stop-color="#cbcbcb"/>
      <stop offset=".965" stop-color="#dfdfde"/>
      <stop offset="1" stop-color="#e5e5e4"/>
    </linearGradient>
  </defs>
  <g id="uuid-81d868a9-c8e3-473f-b549-da3e3ff36fdc">
    <rect x="-764.126" y="-169.242" width="1428" height="830" fill="#fff"/>
  </g>
  <g id="uuid-332504eb-7d4a-43e2-8569-49f117291345">
    <g>
      <path d="m5.981,9.35v-1.947h4.41v1.657c.205-.202.43-.383.672-.543v-1.114h4.41v.818c.286.138.553.306.801.499V1.918c0-.352-.285-.637-.637-.637H.637C.285,1.281,0,1.566,0,1.918v7.711C0,9.981.285,10.266.637,10.266h8.9c.164-.332.369-.637.607-.915h-4.163Zm1.833-2.615H3.404v-1.947h4.41v1.947Zm5.082,0h-4.41v-1.947h4.41v1.947Zm2.577,0h-1.833v-1.947h1.833v1.947Zm-4.41-4.562h4.41v1.947h-4.41v-1.947Zm-5.082,0h4.41v1.947h-4.41v-1.947ZM.9,2.173h4.41v1.947H.9v-1.947Zm0,2.615h1.833v1.947H.9v-1.947Zm4.41,4.562H.9v-1.947h4.41v1.947Z" fill="#821010"/>
      <rect x=".9" y="2.173" width="4.41" height="1.947" fill="#e62323"/>
      <rect x="5.981" y="2.173" width="4.41" height="1.947" fill="#ff7381"/>
      <rect x="11.063" y="2.173" width="4.41" height="1.947" fill="#e62323"/>
      <rect x=".9" y="4.789" width="1.833" height="1.947" fill="#e62323"/>
      <rect x="13.64" y="4.789" width="1.833" height="1.947" fill="#ff7381"/>
      <rect x="3.404" y="4.789" width="4.41" height="1.947" fill="#ff7381"/>
      <rect x="8.486" y="4.789" width="4.41" height="1.947" fill="#e62323"/>
      <rect x=".9" y="7.404" width="4.41" height="1.947" fill="#e62323"/>
      <path d="m5.981,7.404v1.947h4.163c.083-.097.157-.2.247-.29v-1.657h-4.41Z" fill="#ff7381"/>
      <path d="m13.549,7.779c.69,0,1.341.162,1.924.443v-.818h-4.41v1.114c.703-.465,1.543-.739,2.449-.739h.037Z" fill="#e62323"/>
      <path d="m17.97,11.707h-2.569c-.062,0-.103.052-.103.103v1.19c0,.093-.114.145-.186.083l-2.021-2.032c-.041-.041-.041-.103,0-.143l.638-.641h-4.193c-.295.595-.476,1.255-.476,1.964v.038c0,.162.008.321.025.478h2.61c.062,0,.103-.042.103-.103v-1.191c0-.091.112-.132.186-.072l2.021,2.032c.041.041.041.103,0,.143l-2.021,2.031c-.073.062-.186.011-.186-.082v-1.19c0-.052-.041-.103-.103-.103h-2.19c.723,1.484,2.244,2.506,4.005,2.506h.037c2.458,0,4.451-1.993,4.451-4.451v-.038c0-.177-.01-.352-.03-.523Z" fill="url(#uuid-80d0ee39-64d9-4ee1-8250-0603d57e9ac0)"/>
      <path d="m15.764,10.24h1.768c-.299-.597-.734-1.112-1.258-1.519v.908c0,.307-.221.551-.51.611Z" fill="url(#uuid-54cc4271-6fe4-40cc-a6c2-1ac11f708cc9)"/>
      <path d="m14.641,9.35h-3.578v-.833c-.241.16-.466.341-.672.543v.29h-.247c-.238.279-.443.583-.607.915h4.193l.911-.915Z" fill="#821010"/>
      <path d="m14.641,9.35h-3.578v-.833c-.241.16-.466.341-.672.543v.29h-.247c-.238.279-.443.583-.607.915h4.193l.911-.915Z" fill="url(#uuid-c0a1f4c9-1bf9-489f-84f2-00ae78a74dbc)"/>
      <path d="m15.473,9.35h-.175v.787c0,.062.041.103.103.103h.363c.289-.06.51-.305.51-.611v-.908c-.248-.193-.515-.362-.801-.499v1.129Z" fill="#821010"/>
      <path d="m15.473,9.35h-.175v.787c0,.062.041.103.103.103h.363c.289-.06.51-.305.51-.611v-.908c-.248-.193-.515-.362-.801-.499v1.129Z" fill="url(#uuid-aafafa4e-b08d-4853-a504-abe0e0b9d4e9)"/>
      <path d="m10.144,9.35h.247v-.29c-.091.089-.165.193-.247.29Z" fill="#ff7381"/>
      <path d="m10.144,9.35h.247v-.29c-.091.089-.165.193-.247.29Z" fill="url(#uuid-1a76dd1c-00c3-44cd-afa6-78c113930345)"/>
      <path d="m15.299,8.948v.403h.175v-1.129c-.583-.281-1.234-.443-1.924-.443h-.037c-.906,0-1.746.274-2.449.739v.833h3.578l.472-.475c.072-.062.186-.021.186.072Z" fill="#e62323"/>
      <path d="m15.299,8.948v.403h.175v-1.129c-.583-.281-1.234-.443-1.924-.443h-.037c-.906,0-1.746.274-2.449.739v.833h3.578l.472-.475c.072-.062.186-.021.186.072Z" fill="url(#uuid-a70c96be-5675-41e1-9f92-bdcbd20bfdeb)"/>
      <path d="m15.764,10.24h-.363c-.062,0-.103-.041-.103-.103v-1.19c0-.093-.114-.134-.186-.072l-.472.475-.911.915-.638.641c-.041.041-.041.103,0,.143l2.021,2.032c.072.062.186.01.186-.083v-1.19c0-.051.041-.103.103-.103h2.569c-.062-.522-.212-1.015-.439-1.465h-1.35s-.418-.001-.418-.001Z" fill="#e62323"/>
      <path d="m11.8,14.315v1.19c0,.093.112.143.186.082l2.021-2.031c.041-.041.041-.103,0-.143l-2.021-2.032c-.073-.06-.186-.02-.186.072v1.191c0,.06-.041.103-.103.103h-2.61c.056.52.201,1.015.42,1.467h2.19c.062,0,.103.051.103.103Z" fill="#fff"/>
    </g>
  </g>
</svg>

<svg xmlns="http://www.w3.org/2000/svg" width="18" height="18" viewBox="0 0 18 18">
  <defs>
    <linearGradient id="a7622308-207d-4c94-9b59-9990dea05541" x1="13.53" y1="16.72" x2="13.53" y2="7.78" gradientUnits="userSpaceOnUse">
      <stop offset="0" stop-color="#b3b2b3"/>
      <stop offset="0.38" stop-color="#b6b5b5"/>
      <stop offset="0.61" stop-color="#bebdbe"/>
      <stop offset="0.8" stop-color="#cccbcb"/>
      <stop offset="0.96" stop-color="#e0e0df"/>
      <stop offset="1" stop-color="#e5e5e4"/>
    </linearGradient>
    <linearGradient id="bce9d42c-d3ac-42d9-b460-3e16252764e1" x1="16.65" y1="16.72" x2="16.65" y2="7.78" xlink:href="#a7622308-207d-4c94-9b59-9990dea05541"/>
    <linearGradient id="ac24118f-afff-4739-8b47-896f5de1c664" x1="12.09" y1="16.72" x2="12.09" y2="7.78" xlink:href="#a7622308-207d-4c94-9b59-9990dea05541"/>
    <linearGradient id="ab2f2d1c-1ce2-43aa-b51e-371a0d4df33a" x1="15.79" y1="16.72" x2="15.79" y2="7.78" xlink:href="#a7622308-207d-4c94-9b59-9990dea05541"/>
    <linearGradient id="bd2ebce2-24f5-4094-b1a0-99118ee983c7" x1="10.27" y1="16.72" x2="10.27" y2="7.78" xlink:href="#a7622308-207d-4c94-9b59-9990dea05541"/>
    <linearGradient id="fed11a49-2ad1-4063-a9d7-9b842713a6c5" x1="13.27" y1="16.72" x2="13.27" y2="7.78" xlink:href="#a7622308-207d-4c94-9b59-9990dea05541"/>
  </defs>
  <g id="f898878f-74d6-4004-aac4-d14e618431a9">
    <g>
      <path d="M6,9.35V7.4h4.41V9.06a5,5,0,0,1,.67-.54V7.4h4.41v.82a4.32,4.32,0,0,1,.8.5V1.92a.64.64,0,0,0-.63-.64H.64A.64.64,0,0,0,0,1.92V9.63a.64.64,0,0,0,.64.64h8.9a4.42,4.42,0,0,1,.6-.92ZM7.81,6.74H3.4V4.79H7.81Zm5.09,0H8.49V4.79H12.9Zm2.57,0H13.64V4.79h1.83ZM11.06,2.17h4.41v2H11.06ZM6,2.17h4.41v2H6ZM.9,2.17H5.31v2H.9Zm0,2.62H2.73v2H.9ZM5.31,9.35H.9V7.4H5.31Z" fill="#821010"/>
      <rect x="0.9" y="2.17" width="4.41" height="1.95" fill="#e62323"/>
      <rect x="5.98" y="2.17" width="4.41" height="1.95" fill="#ff7381"/>
      <rect x="11.06" y="2.17" width="4.41" height="1.95" fill="#e62323"/>
      <rect x="0.9" y="4.79" width="1.83" height="1.95" fill="#e62323"/>
      <rect x="13.64" y="4.79" width="1.83" height="1.95" fill="#ff7381"/>
      <rect x="3.4" y="4.79" width="4.41" height="1.95" fill="#ff7381"/>
      <rect x="8.49" y="4.79" width="4.41" height="1.95" fill="#e62323"/>
      <rect x="0.9" y="7.4" width="4.41" height="1.95" fill="#e62323"/>
      <path d="M6,7.4V9.35h4.16c.09-.1.16-.2.25-.29V7.4Z" fill="#ff7381"/>
      <path d="M13.55,7.78a4.4,4.4,0,0,1,1.92.44V7.4H11.06V8.52a4.42,4.42,0,0,1,2.45-.74Z" fill="#e62323"/>
      <path d="M18,11.71H15.4a.1.1,0,0,0-.1.1V13a.12.12,0,0,1-.19.08l-2-2a.1.1,0,0,1,0-.14l.64-.64H9.54a4.3,4.3,0,0,0-.48,2v0a3.87,3.87,0,0,0,0,.48H11.7a.1.1,0,0,0,.1-.11V11.45a.11.11,0,0,1,.19-.07l2,2a.11.11,0,0,1,0,.15l-2,2a.12.12,0,0,1-.19-.08V14.32a.1.1,0,0,0-.1-.11H9.51a4.44,4.44,0,0,0,4,2.51h0A4.45,4.45,0,0,0,18,12.27v0A4.41,4.41,0,0,0,18,11.71Z" fill="url(#a7622308-207d-4c94-9b59-9990dea05541)"/>
      <path d="M15.76,10.24h1.77a4.41,4.41,0,0,0-1.26-1.52v.91A.62.62,0,0,1,15.76,10.24Z" fill="url(#bce9d42c-d3ac-42d9-b460-3e16252764e1)"/>
      <path d="M14.64,9.35H11.06V8.52a5,5,0,0,0-.67.54v.29h-.25a4.42,4.42,0,0,0-.6.92h4.19Z" fill="#821010"/>
      <path d="M14.64,9.35H11.06V8.52a5,5,0,0,0-.67.54v.29h-.25a4.42,4.42,0,0,0-.6.92h4.19Z" fill="url(#ac24118f-afff-4739-8b47-896f5de1c664)"/>
      <path d="M15.47,9.35H15.3v.79a.09.09,0,0,0,.1.1h.36a.62.62,0,0,0,.51-.61V8.72a4.32,4.32,0,0,0-.8-.5Z" fill="#821010"/>
      <path d="M15.47,9.35H15.3v.79a.09.09,0,0,0,.1.1h.36a.62.62,0,0,0,.51-.61V8.72a4.32,4.32,0,0,0-.8-.5Z" fill="url(#ab2f2d1c-1ce2-43aa-b51e-371a0d4df33a)"/>
      <path d="M10.14,9.35h.25V9.06C10.3,9.15,10.23,9.25,10.14,9.35Z" fill="#ff7381"/>
      <path d="M10.14,9.35h.25V9.06C10.3,9.15,10.23,9.25,10.14,9.35Z" fill="url(#bd2ebce2-24f5-4094-b1a0-99118ee983c7)"/>
      <path d="M15.3,9v.4h.17V8.22a4.4,4.4,0,0,0-1.92-.44h0a4.42,4.42,0,0,0-2.45.74v.83h3.58l.47-.47A.11.11,0,0,1,15.3,9Z" fill="#e62323"/>
      <path d="M15.3,9v.4h.17V8.22a4.4,4.4,0,0,0-1.92-.44h0a4.42,4.42,0,0,0-2.45.74v.83h3.58l.47-.47A.11.11,0,0,1,15.3,9Z" fill="url(#fed11a49-2ad1-4063-a9d7-9b842713a6c5)"/>
      <path d="M15.76,10.24H15.4a.09.09,0,0,1-.1-.1V9a.11.11,0,0,0-.19-.07l-.47.47-.91.92-.64.64a.1.1,0,0,0,0,.14l2,2A.12.12,0,0,0,15.3,13V11.81a.1.1,0,0,1,.1-.1H18a4.32,4.32,0,0,0-.44-1.47H15.76Z" fill="#e62323"/>
      <path d="M11.8,14.32v1.19a.12.12,0,0,0,.19.08l2-2a.11.11,0,0,0,0-.15l-2-2a.11.11,0,0,0-.19.07v1.19a.1.1,0,0,1-.1.11H9.09a4.24,4.24,0,0,0,.42,1.46H11.7A.1.1,0,0,1,11.8,14.32Z" fill="#fff"/>
    </g>
  </g>
</svg>
